common/svg/thumbs-up-icon.svg

<svg fill="none" height="20" viewBox="0 0 20 20" width="20" xmlns="http://www.w3.org/2000/svg" xmlns:xlink="http://www.w3.org/1999/xlink"><clipPath id="a"><path d="m0 0h20v20h-20z"/></clipPath><g clip-path="url(#a)" fill="#000"><path d="m11.0005 3.66 2.92 6.46c.0539.1201.0811.2495.08.38v7.6c0 .5039-.2107.9872-.5858 1.3435-.375.3563-.8837.5565-1.4142.5565h-5.99999c-.78176-.0296-1.54001-.2623-2.19234-.6726-.65232-.4104-1.17378-.9827-1.50768-1.6549l-2.2300026-4.8925c-.0504448-.1208-.07426929-.2501-.07000021-.38v-1.9c0-.75587.31607181-1.48078.87868281-2.01525.56261-.53448 1.32567-.83475 2.12133-.83475h4.00001v-3.8c0-.75587.31607-1.48078.87868-2.01525.56261-.53448 1.32568-.83475 2.12131-.83475.2652 0 .5196.10009.7071.27825.1876.17816.2929.41979.2929.67175z"/><path d="m19 9.5h-2c-.5523 0-1 .42533-1 .95v8.55c0 .5247.4477.95 1 .95h2c.5523 0 1-.4253 1-.95v-8.55c0-.52467-.4477-.95-1-.95z"/></g></svg>

<svg width="20" height="20" viewBox="0 0 20 20" fill="none" xmlns="http://www.w3.org/2000/svg">
<g clip-path="url(#clip0_2791_2864)">
<path d="M11.0005 3.66L13.9205 10.12C13.9744 10.2401 14.0016 10.3695 14.0005 10.5V18.1C14.0005 18.6039 13.7898 19.0872 13.4147 19.4435C13.0397 19.7998 12.531 20 12.0005 20H6.00051C5.21875 19.9704 4.4605 19.7377 3.80817 19.3274C3.15585 18.917 2.63439 18.3447 2.30049 17.6725L0.0704874 12.78C0.0200426 12.6592 -0.00378189 12.5299 0.000487194 12.4V10.5C0.000487194 9.74413 0.316559 9.01922 0.87917 8.48475C1.44178 7.95027 2.20484 7.65 3.0005 7.65H7.00051V3.85C7.00051 3.09413 7.31658 2.36922 7.87919 1.83475C8.4418 1.30027 9.20487 1 10.0005 1C10.2657 1 10.5201 1.10009 10.7076 1.27825C10.8952 1.45641 11.0005 1.69804 11.0005 1.95V3.66Z" fill="black"/>
<path d="M19 9.5H17C16.4477 9.5 16 9.92533 16 10.45V19C16 19.5247 16.4477 19.95 17 19.95H19C19.5523 19.95 20 19.5247 20 19V10.45C20 9.92533 19.5523 9.5 19 9.5Z" fill="black"/>
</g>
<defs>
<clipPath id="clip0_2791_2864">
<rect width="20" height="20" fill="white"/>
</clipPath>
</defs>
</svg>
